X:255
T: Callaghan's
S: "Johnny O'Leary of Sliabh Luachra" (#61)
Z: B.Black
L: 1/8
M: 4/4
R: hornpipe
K: G
(3Bcd|egfg edBA|GABc dBGE|DEGA BA (3Bcd|\
(3efg fg ed (3Bcd|
gdfd ed (3Bcd|(3efg fa gedc|(3BdB GB (3AcA FA|\
G2 GF G2 :|
(3efg|(3agf (3gfe dega|bBBA G2 (3efg|af (3gfe) dega|\
beed e3 z|
(3fef (3def gfeg|(3fga (3def gfeg|(3fga (3agf gfed|1\
Beed e2 :|2 Beed e2 g2 ||
